; generated by PrusaSlicer 2.0.0+linux64 on 2019-06-06 at 20:12:23

; 

; external perimeters extrusion width = 0.45mm
; perimeters extrusion width = 0.45mm
; infill extrusion width = 0.45mm
; solid infill extrusion width = 0.45mm
; top infill extrusion width = 0.40mm
; first layer extrusion width = 0.42mm

M73 P0 R89
M73 Q0 S89
M201 X1000 Y1000 Z1000 E5000 ; sets maximum accelerations, mm/sec^2
M203 X200 Y200 Z12 E120 ; sets maximum feedrates, mm/sec
M204 P1250 R1250 T1250 ; sets acceleration (P, T) and retract acceleration (R), mm/sec^2
M205 X8.00 Y8.00 Z0.40 E1.50 ; sets the jerk limits, mm/sec
M205 S0 T0 ; sets the minimum extruding and travel feed rate, mm/sec
M107
M115 U3.7.1 ; tell printer latest fw version
G90 ; use absolute coordinates
M83 ; extruder relative mode
M104 S215 ; set extruder temp
M140 S60 ; set bed temp
M190 S60 ; wait for bed temp
M109 S215 ; wait for extruder temp
G28 W ; home all without mesh bed level
G80 ; mesh bed leveling
G1 Y-3.0 F1000.0 ; go outside print area
G92 E0.0
G1 X60.0 E9.0 F1000.0 ; intro line
M73 Q0 S89
M73 P0 R89
G1 X100.0 E12.5 F1000.0 ; intro line
G92 E0.0
M221 S95
M900 K30 ; Filament gcode
G21 ; set units to millimeters
G90 ; use absolute coordinates
M83 ; use relative distances for extrusion
;BEFORE_LAYER_CHANGE
G92 E0.0
;0.2


G1 E-0.80000 F2100.00000
G1 Z0.600 F10800.000
;AFTER_LAYER_CHANGE
;0.2
G1 X90.280 Y138.672
G1 Z0.200
G1 E0.80000 F2100.00000
M204 S1000
G1 F1200
G1 X89.740 Y138.053 E0.02574
G1 X86.469 Y131.502 E0.22959
G1 X86.292 Y130.981 E0.01726
G1 X86.317 Y124.722 E0.19624
G1 X86.382 Y124.219 E0.01589
G1 X99.533 Y77.826 E1.51195
G1 X99.778 Y77.273 E0.01896
G1 X104.294 Y70.200 E0.26311
G1 X105.464 Y69.039 E0.05168
G1 X105.895 Y68.732 E0.01660
G1 X107.674 Y67.767 E0.06346
G1 X111.070 Y66.349 E0.11538
G1 X129.236 Y60.926 E0.59442
G1 X129.856 Y60.837 E0.01964
G1 X130.621 Y60.912 E0.02408
G1 X131.135 Y61.075 E0.01692
G1 X131.636 Y61.394 E0.01862
G1 X132.033 Y61.836 E0.01862
G1 X163.400 Y110.014 E1.80256
G1 X163.708 Y110.767 E0.02552
G1 X163.750 Y111.320 E0.01737
G1 X163.652 Y111.862 E0.01726
G1 X156.808 Y132.659 E0.68650
G1 X150.639 Y147.482 E0.50339
G1 X150.272 Y147.976 E0.01930
G1 X149.784 Y148.346 E0.01919
G1 X147.922 Y148.997 E0.06187
G1 X145.407 Y149.161 E0.07902
G1 X144.934 Y149.130 E0.01487
G1 X91.014 Y139.048 E1.71993
G1 X90.333 Y138.699 E0.02398
G1 F8640
G1 X89.740 Y138.053 E-0.20253
G1 X88.661 Y135.893 E-0.55747
G1 E-0.04000 F2100.00000
G1 Z0.800 F10800.000
G1 X97.710 Y134.768
G1 Z0.200
G1 E0.80000 F2100.00000
G1 F1200
G1 X97.753 Y134.428 E0.01073
G1 X97.934 Y133.982 E0.01510
G1 X98.024 Y133.819 E0.00583
G1 X98.117 Y133.449 E0.01196
G1 X98.193 Y133.244 E0.00686
G1 X98.373 Y133.144 E0.00648
G1 X98.645 Y132.823 E0.01318
G1 X98.956 Y132.591 E0.01216
G1 X99.092 Y132.446 E0.00625
G1 X99.289 Y132.126 E0.01176
G1 X100.037 Y131.186 E0.03767
G1 X98.415 Y130.845 E0.05197
G1 X97.909 Y130.639 E0.01713
G1 X97.823 Y130.424 E0.00726
G1 X97.812 Y130.238 E0.00585
G1 X97.741 Y130.153 E0.00349
G1 X97.781 Y130.139 E0.00132
G1 X98.055 Y130.213 E0.00890
G1 X98.373 Y130.122 E0.01038
G1 X98.607 Y130.133 E0.00736
G1 X99.021 Y130.083 E0.01305
G1 X99.377 Y129.955 E0.01189
G1 X99.960 Y129.630 E0.02090
G1 X100.224 Y129.556 E0.00860
G1 X100.840 Y129.463 E0.01955
G1 X100.863 Y128.362 E0.03455
G1 X100.564 Y128.322 E0.00944
G1 X100.527 Y128.070 E0.00801
G1 X100.322 Y127.763 E0.01158
G1 X100.043 Y127.619 E0.00985
G1 X99.518 Y127.495 E0.01690
G1 X99.263 Y127.474 E0.00802
G1 X99.096 Y127.397 E0.00577
G1 X99.102 Y126.990 E0.01274
G1 X99.019 Y126.849 E0.00515
G1 X98.948 Y126.539 E0.00998
G1 X99.036 Y126.366 E0.00608
G1 X99.435 Y126.330 E0.01257
G1 X99.611 Y125.594 E0.02373
G1 X99.565 Y125.486 E0.00370
G1 X99.604 Y125.391 E0.00320
G1 X99.648 Y125.023 E0.01164
G1 X99.704 Y124.823 E0.00651
G1 X99.815 Y124.673 E0.00586
G1 X99.931 Y124.382 E0.00979
G1 X99.967 Y124.072 E0.00981
G1 X99.897 Y123.762 E0.00996
G1 X99.740 Y123.477 E0.01019
G1 X99.376 Y123.218 E0.01402
G1 X99.199 Y123.198 E0.00559
G1 X98.426 Y122.411 E0.03458
G1 X98.925 Y121.904 E0.02232
G1 X98.061 Y121.442 E0.03071
G1 X97.565 Y120.365 E0.03718
G1 X96.969 Y121.309 E0.03501
G1 X96.889 Y121.282 E0.00264
G1 X96.577 Y121.103 E0.01128
G1 X96.495 Y121.029 E0.00348
G1 X96.216 Y120.877 E0.00994
G1 X95.898 Y120.830 E0.01009
G1 X95.735 Y120.849 E0.00516
G1 X95.721 Y120.699 E0.00472
G1 X95.832 Y120.140 E0.01789
G1 X95.739 Y119.826 E0.01026
G1 X95.399 Y119.455 E0.01579
G1 X95.075 Y119.316 E0.01103
G1 X95.014 Y119.318 E0.00193
G1 X95.354 Y118.667 E0.02303
G1 X95.482 Y118.371 E0.01010
G1 X95.842 Y118.427 E0.01142
G1 X96.285 Y117.949 E0.02044
G1 X96.540 Y117.977 E0.00804
G1 X96.901 Y117.897 E0.01159
G1 X97.317 Y117.734 E0.01400
G1 X97.483 Y117.777 E0.00537
G1 X98.025 Y118.252 E0.02261
G1 X98.077 Y118.751 E0.01574
G1 X98.245 Y119.061 E0.01105
G1 X98.472 Y119.180 E0.00802
G1 X98.571 Y119.298 E0.00485
G1 X99.160 Y119.546 E0.02003
G1 X99.283 Y119.720 E0.00667
G1 X99.590 Y120.014 E0.01334
G1 X100.601 Y120.798 E0.04013
G1 X100.957 Y120.946 E0.01206
G1 X101.410 Y120.927 E0.01423
G1 X101.710 Y120.843 E0.00974
G1 X101.916 Y120.724 E0.00746
G1 X102.142 Y120.515 E0.00969
G1 X102.277 Y120.312 E0.00762
G1 X102.633 Y120.089 E0.01319
G1 X103.011 Y119.932 E0.01281
G1 X103.385 Y119.822 E0.01224
G1 X103.627 Y119.723 E0.00820
G1 X104.026 Y119.708 E0.01250
G1 X104.329 Y119.621 E0.00988
G1 X105.227 Y119.290 E0.03003
G1 X105.273 Y119.295 E0.00143
G1 X105.357 Y119.355 E0.00323
G1 X105.603 Y119.725 E0.01394
G1 X106.052 Y119.888 E0.01495
G1 X106.380 Y119.855 E0.01034
G1 X106.640 Y119.752 E0.00878
G1 X107.031 Y119.550 E0.01379
G1 X107.441 Y119.269 E0.01559
G1 X107.843 Y119.136 E0.01327
G1 X107.982 Y118.557 E0.01869
G1 X108.167 Y118.127 E0.01468
G1 X108.147 Y117.786 E0.01070
G1 X108.226 Y117.609 E0.00608
G1 X108.196 Y117.095 E0.01615
G1 X108.665 Y116.768 E0.01794
G1 X108.791 Y116.540 E0.00817
G1 X108.864 Y116.264 E0.00896
G1 X108.914 Y115.867 E0.01254
G1 X108.818 Y115.429 E0.01405
G1 X108.727 Y115.208 E0.00748
G1 X108.488 Y114.848 E0.01354
G1 X108.408 Y114.563 E0.00928
G1 X108.021 Y113.755 E0.02811
G1 X107.937 Y113.781 E0.00275
G1 X107.861 Y113.657 E0.00457
G1 X107.828 Y113.449 E0.00660
G1 X107.628 Y113.172 E0.01071
G1 X107.436 Y113.056 E0.00705
G1 X107.229 Y112.874 E0.00864
G1 X106.998 Y112.807 E0.00752
G1 X106.963 Y112.653 E0.00496
G1 X106.739 Y112.293 E0.01332
G1 X106.668 Y112.099 E0.00645
G1 X106.453 Y111.759 E0.01263
G1 X106.242 Y111.585 E0.00858
G1 X106.182 Y111.504 E0.00316
G1 X106.150 Y111.221 E0.00892
G1 X105.801 Y110.932 E0.01422
G1 X105.705 Y110.721 E0.00728
G1 X105.667 Y110.679 E0.00177
G1 X105.806 Y110.548 E0.00598
G1 X105.946 Y110.357 E0.00743
G1 X106.280 Y109.613 E0.02557
G1 X106.191 Y109.096 E0.01644
G1 X106.207 Y108.829 E0.00839
G1 X106.149 Y108.679 E0.00506
G1 X106.166 Y108.417 E0.00823
G1 X106.150 Y107.984 E0.01359
G1 X106.176 Y107.704 E0.00881
G1 X106.296 Y107.652 E0.00412
G1 X106.516 Y107.369 E0.01124
G1 X107.607 Y106.467 E0.04437
G1 X106.701 Y106.329 E0.02874
G1 X106.872 Y106.237 E0.00608
G1 X106.879 Y106.054 E0.00573
G1 X107.014 Y105.879 E0.00695
G1 X107.095 Y105.831 E0.00293
G1 X107.093 Y105.627 E0.00642
G1 X107.311 Y105.317 E0.01187
G1 X106.946 Y104.718 E0.02199
G1 X106.431 Y104.279 E0.02121
G1 X106.170 Y104.170 E0.00886
G1 X106.081 Y103.811 E0.01157
G1 X106.131 Y103.611 E0.00647
G1 X106.887 Y102.812 E0.03450
G1 X107.344 Y102.759 E0.01441
G1 X107.601 Y102.444 E0.01277
G1 X107.656 Y102.303 E0.00474
G1 X107.869 Y102.219 E0.00716
G1 X108.186 Y102.009 E0.01194
G1 X108.480 Y101.705 E0.01326
G1 X108.612 Y101.675 E0.00425
G1 X108.958 Y100.737 E0.03133
G1 X108.927 Y100.516 E0.00699
G1 X111.757 Y100.018 E0.09008
G1 X114.070 Y101.343 E0.08357
G1 X114.251 Y100.080 E0.04000
G1 X114.125 Y99.222 E0.02720
G1 X114.595 Y98.804 E0.01970
G1 X115.007 Y98.079 E0.02617
G1 X114.942 Y98.028 E0.00260
G1 X115.237 Y97.733 E0.01308
G1 X115.992 Y96.812 E0.03737
G1 X116.159 Y96.658 E0.00711
G1 X116.314 Y96.554 E0.00585
G1 X116.397 Y96.576 E0.00269
G1 X116.531 Y96.409 E0.00672
G1 X116.862 Y96.187 E0.01251
G1 X116.801 Y96.071 E0.00412
G1 X117.187 Y95.588 E0.01937
G1 X117.112 Y95.532 E0.00292
G1 X117.251 Y95.262 E0.00953
G1 X117.343 Y94.996 E0.00882
G1 X117.501 Y94.973 E0.00503
G1 X117.530 Y94.372 E0.01888
G1 X117.587 Y94.138 E0.00753
G1 X117.653 Y93.540 E0.01886
G1 X117.844 Y92.978 E0.01863
G1 X117.853 Y92.604 E0.01174
G1 X118.002 Y91.854 E0.02397
G1 X119.052 Y90.407 E0.05607
G1 X118.386 Y89.833 E0.02756
G1 X117.779 Y89.416 E0.02310
G1 X117.584 Y89.254 E0.00795
G1 X117.424 Y88.573 E0.02196
G1 X117.355 Y88.058 E0.01627
G1 X117.186 Y87.501 E0.01826
G1 X117.017 Y87.106 E0.01345
G1 X116.870 Y86.912 E0.00764
G1 X117.061 Y86.434 E0.01615
G1 X117.204 Y85.868 E0.01829
G1 X117.248 Y85.881 E0.00145
G1 X117.884 Y84.375 E0.05125
G1 X117.958 Y84.229 E0.00512
G1 X118.602 Y83.215 E0.03767
G1 X117.906 Y82.827 E0.02496
G1 X116.549 Y82.386 E0.04476
G1 X115.795 Y82.045 E0.02595
G1 X115.719 Y82.119 E0.00332
G1 X115.170 Y81.825 E0.01954
G1 X114.369 Y81.263 E0.03069
G1 X114.270 Y81.553 E0.00962
G1 X114.101 Y81.515 E0.00545
G1 X114.095 Y81.532 E0.00055
G1 X113.967 Y81.497 E0.00414
G1 X113.978 Y81.464 E0.00111
G1 X113.053 Y81.038 E0.03193
G1 X106.209 Y79.174 E0.22242
G1 X104.664 Y78.723 E0.05046
G1 X104.501 Y78.708 E0.00513
G1 X102.797 Y78.190 E0.05585
G1 X102.862 Y78.149 E0.00241
G1 X103.811 Y77.186 E0.04238
G1 X104.272 Y76.493 E0.02612
G1 X104.693 Y75.808 E0.02522
G1 X104.927 Y75.305 E0.01737
G1 X105.166 Y74.954 E0.01333
G1 X105.252 Y74.945 E0.00268
G1 X106.266 Y72.807 E0.07420
G1 X106.587 Y71.797 E0.03325
G1 X107.291 Y71.132 E0.03036
G1 X108.849 Y70.282 E0.05565
G1 X110.173 Y69.691 E0.04546
G1 X111.287 Y69.225 E0.03785
G1 X111.941 Y68.985 E0.02184
G1 X113.461 Y68.537 E0.04970
G1 X117.076 Y68.179 E0.11390
G1 X120.940 Y67.288 E0.12433
G1 X121.547 Y68.220 E0.03486
G1 X121.752 Y68.646 E0.01482
G1 X121.914 Y69.075 E0.01437
G1 X122.265 Y69.865 E0.02712
G1 X122.528 Y70.566 E0.02346
G1 X122.791 Y70.524 E0.00834
G1 X122.925 Y70.883 E0.01204
G1 X125.033 Y70.548 E0.06692
G1 X128.381 Y77.148 E0.23202
G1 X126.845 Y77.731 E0.05152
G1 X126.475 Y77.997 E0.01429
G1 X125.335 Y77.527 E0.03868
G1 X121.089 Y71.101 E0.24148
G1 X119.116 Y72.403 E0.07412
G1 X119.217 Y72.556 E0.00576
G1 X119.122 Y72.618 E0.00357
G1 X119.924 Y73.830 E0.04555
G1 X118.748 Y74.608 E0.04420
G1 X119.712 Y76.063 E0.05472
G1 X119.736 Y76.309 E0.00774
G1 X119.865 Y76.294 E0.00408
G1 X119.943 Y76.412 E0.00444
G1 X120.178 Y76.259 E0.00879
G1 X121.495 Y76.113 E0.04155
G1 X122.816 Y81.223 E0.16548
G1 X124.797 Y80.664 E0.06453
G1 X124.644 Y80.072 E0.01920
G1 X124.797 Y80.032 E0.00495
G1 X124.699 Y79.658 E0.01213
G1 X127.118 Y80.978 E0.08640
G1 X126.729 Y81.857 E0.03014
G1 X126.904 Y81.934 E0.00599
G1 X126.787 Y82.205 E0.00924
G1 X127.635 Y82.581 E0.02909
G1 X127.389 Y83.138 E0.01910
G1 X127.442 Y83.162 E0.00183
G1 X127.395 Y83.268 E0.00363
G1 X128.958 Y83.960 E0.05360
G1 X129.248 Y83.334 E0.02163
G1 X130.501 Y81.819 E0.06165
G1 X132.776 Y85.079 E0.12463
G1 X131.623 Y86.466 E0.05655
G1 X132.754 Y88.110 E0.06257
G1 X134.509 Y86.897 E0.06689
G1 X134.567 Y86.981 E0.00321
G1 X133.206 Y87.923 E0.05189
G1 X135.265 Y90.518 E0.10386
G1 X135.180 Y90.576 E0.00322
G1 X135.114 Y90.594 E0.00215
G1 X135.120 Y90.617 E0.00075
G1 X135.045 Y90.668 E0.00284
G1 X135.190 Y90.881 E0.00808
G1 X136.084 Y94.277 E0.11011
G1 X136.425 Y94.184 E0.01107
G1 X136.459 Y94.226 E0.00172
G1 X136.274 Y94.379 E0.00753
G1 X137.098 Y95.375 E0.04053
G1 X137.017 Y95.437 E0.00321
G1 X139.277 Y98.171 E0.11120
G1 X139.260 Y98.295 E0.00391
G1 X139.401 Y98.322 E0.00452
G1 X139.751 Y98.745 E0.01720
G1 X139.799 Y98.398 E0.01097
G1 X140.139 Y98.463 E0.01083
G1 X140.635 Y98.470 E0.01556
G1 X141.506 Y97.716 E0.03613
G1 X141.523 Y97.594 E0.00387
G1 X141.572 Y97.547 E0.00213
G1 X141.810 Y95.904 E0.05203
G1 X141.402 Y94.730 E0.03898
G1 X141.840 Y94.467 E0.01601
G1 X141.514 Y93.920 E0.01995
G1 X141.667 Y93.877 E0.00498
G1 X141.358 Y92.761 E0.03632
G1 X143.075 Y95.768 E0.10858
G1 X144.217 Y97.712 E0.07068
G1 X144.528 Y98.219 E0.01866
G1 X144.545 Y98.208 E0.00063
G1 X145.200 Y99.197 E0.03721
G1 X146.484 Y99.661 E0.04281
G1 X145.862 Y100.505 E0.03289
G1 X145.922 Y100.550 E0.00234
G1 X145.882 Y100.605 E0.00216
G1 X147.706 Y101.951 E0.07109
G1 X147.748 Y101.894 E0.00223
G1 X147.805 Y101.936 E0.00219
G1 X148.153 Y102.494 E0.02063
G1 X149.347 Y102.792 E0.03860
G1 X150.398 Y104.217 E0.05552
G1 X152.358 Y105.607 E0.07535
G1 X152.401 Y105.547 E0.00232
G1 X152.747 Y105.989 E0.01759
G1 X153.767 Y106.753 E0.03997
G1 X153.731 Y106.801 E0.00190
G1 X154.929 Y108.333 E0.06097
G1 X155.546 Y108.795 E0.02418
G1 X155.939 Y109.297 E0.02001
G1 X157.515 Y110.136 E0.05596
G1 X157.909 Y109.611 E0.02058
G1 X158.920 Y110.403 E0.04027
G1 X159.092 Y110.282 E0.00659
G1 X159.377 Y110.689 E0.01556
G1 X159.911 Y109.980 E0.02784
G1 X160.742 Y111.088 E0.04343
G1 X158.897 Y112.473 E0.07235
G1 X158.604 Y112.721 E0.01202
G1 X158.581 Y112.802 E0.00265
G1 X158.026 Y113.230 E0.02198
G1 X157.715 Y113.632 E0.01595
G1 X157.888 Y113.943 E0.01117
G1 X157.702 Y114.245 E0.01110
G1 X157.567 Y114.647 E0.01332
G1 X157.448 Y114.894 E0.00858
G1 X157.183 Y115.201 E0.01273
G1 X156.926 Y115.564 E0.01393
G1 X156.489 Y116.534 E0.03337
G1 X155.741 Y117.537 E0.03923
G1 X155.289 Y117.988 E0.02002
G1 X155.056 Y118.061 E0.00765
G1 X154.590 Y118.695 E0.02468
G1 X154.463 Y119.853 E0.03652
G1 X154.370 Y119.807 E0.00323
G1 X153.905 Y120.434 E0.02447
G1 X153.889 Y120.576 E0.00448
G1 X153.427 Y120.660 E0.01471
G1 X153.146 Y120.932 E0.01226
G1 X152.842 Y121.094 E0.01080
G1 X152.472 Y121.492 E0.01706
G1 X152.730 Y122.065 E0.01969
G1 X152.824 Y122.177 E0.00460
G1 X152.909 Y122.370 E0.00660
G1 X153.206 Y122.705 E0.01406
G1 X153.333 Y123.017 E0.01054
G1 X153.387 Y123.689 E0.02114
G1 X153.202 Y123.852 E0.00772
G1 X153.270 Y124.278 E0.01353
G1 X153.232 Y124.627 E0.01100
G1 X153.221 Y125.501 E0.02740
G1 X153.325 Y125.994 E0.01580
G1 X154.302 Y126.257 E0.03175
G1 X154.337 Y126.233 E0.00132
G1 X154.575 Y126.300 E0.00776
G1 X155.015 Y126.287 E0.01381
G1 X154.902 Y126.781 E0.01588
G1 X154.928 Y126.864 E0.00272
G1 X154.833 Y127.610 E0.02360
G1 X154.884 Y127.740 E0.00437
G1 X154.772 Y129.588 E0.05804
G1 X154.648 Y130.364 E0.02466
G1 X154.583 Y130.642 E0.00894
G1 X154.406 Y131.198 E0.01831
G1 X154.250 Y131.580 E0.01293
G1 X153.132 Y133.805 E0.07808
G1 X152.018 Y135.792 E0.07142
G1 X151.346 Y136.766 E0.03710
G1 X150.990 Y137.184 E0.01721
G1 X150.007 Y138.449 E0.05024
G1 X150.020 Y138.463 E0.00060
G1 X149.230 Y139.505 E0.04100
G1 X149.174 Y139.484 E0.00189
G1 X148.671 Y140.286 E0.02968
G1 X148.345 Y140.963 E0.02357
G1 X148.364 Y140.973 E0.00066
G1 X148.170 Y141.437 E0.01575
G1 X148.039 Y141.869 E0.01415
G1 X147.921 Y142.582 E0.02266
G1 X147.905 Y142.832 E0.00787
G1 X147.802 Y142.891 E0.00371
G1 X148.074 Y145.853 E0.09325
G1 X147.797 Y145.899 E0.00881
G1 X147.367 Y146.264 E0.01768
G1 X147.281 Y146.262 E0.00272
G1 X147.247 Y146.208 E0.00199
G1 X146.677 Y146.208 E0.01787
G1 X146.494 Y146.168 E0.00586
G1 X146.203 Y145.507 E0.02265
G1 X146.288 Y145.257 E0.00830
G1 X146.202 Y144.615 E0.02031
G1 X144.435 Y144.411 E0.05578
G1 X143.493 Y144.200 E0.03025
G1 X143.383 Y144.147 E0.00382
G1 X142.890 Y143.676 E0.02138
G1 X142.607 Y143.585 E0.00933
G1 X142.312 Y143.408 E0.01077
G1 X141.740 Y142.787 E0.02649
G1 X141.384 Y143.039 E0.01368
G1 X141.301 Y142.990 E0.00300
G1 X140.944 Y142.920 E0.01143
G1 X140.789 Y142.918 E0.00484
G1 X140.524 Y142.832 E0.00872
G1 X140.341 Y142.677 E0.00753
G1 X140.047 Y142.564 E0.00989
G1 X139.901 Y142.359 E0.00789
G1 X139.084 Y141.934 E0.02887
G1 X138.902 Y141.561 E0.01302
G1 X138.626 Y141.163 E0.01518
G1 X138.836 Y140.767 E0.01407
G1 X138.937 Y140.471 E0.00981
G1 X138.800 Y139.356 E0.03521
G1 X138.999 Y138.473 E0.02840
G1 X137.994 Y137.374 E0.04669
G1 X137.714 Y137.233 E0.00984
G1 X137.263 Y137.224 E0.01413
G1 X136.539 Y137.610 E0.02573
G1 X135.786 Y137.831 E0.02461
G1 X135.661 Y137.884 E0.00426
G1 X135.095 Y137.608 E0.01975
G1 X134.874 Y137.538 E0.00727
G1 X134.492 Y137.538 E0.01197
G1 X134.163 Y137.788 E0.01297
G1 X133.893 Y137.656 E0.00944
